lib/healthicons/icons/solid/symbols/low_level.svg

<svg fill="none" height="48" viewBox="0 0 48 48" width="48" xmlns="http://www.w3.org/2000/svg"><g fill="#333"><path d="m6.10881 24c.44797-4.0697 2.25433-7.7309 4.95619-10.5207l3.0564 3.0562 1.4142-1.4142-3.0008-3.0006c2.8738-2.37568 6.4984-3.87633 10.4652-4.09341v4.97271h2v-4.97271c3.9668.21707 7.5915 1.71776 10.4653 4.09351l-2.8795 2.8791 1.4141 1.4143 2.9352-2.9348c2.7018 2.7898 4.5081 6.4509 4.9561 10.5206h-4.2069v2h4.3157c-.0025 4.3403-1.5421 8.3201-4.106 11.4269l-3.4204-3.4202-1.4142 1.4142 3.4772 3.4771-.0127.0123 1.3913 1.4368c3.7511-3.6323 6.0848-8.7235 6.0848-14.3579 0-11.0402-8.9548-19.9892-20-19.9892s-20 8.949-20 19.9892c0 5.4849 2.21161 10.4554 5.78969 14.0661l1.42061-1.4078c-.0063-.0063-.0125-.0126-.0188-.019l3.0052-3.0053-1.4142-1.4142-2.91834 2.9184c-2.41851-3.0612-3.8617-6.9252-3.86416-11.1274h4.0527v-2z"/><path d="m25.6321 36.4988c-.3586.1613-.7637.1862-1.1394.0699l-12.9268-5.4326c-1.9125-.592-1.437-2.5605.5407-2.2496l13.9832.8008c.3884.0611.7412.2619.9921.5646l1.7195 2.3726c.2646 1.029.1516 1.5161-.5806 2.5016z"/></g></svg>

<svg width="48" height="48" viewBox="0 0 48 48" fill="none" xmlns="http://www.w3.org/2000/svg">
<path d="M6.10881 24C6.55678 19.9303 8.36314 16.2691 11.065 13.4793L14.1214 16.5355L15.5356 15.1213L12.5348 12.1207C15.4086 9.74502 19.0332 8.24437 23 8.02729L23 13L25 13L25 8.02729C28.9668 8.24436 32.5915 9.74505 35.4653 12.1208L32.5858 14.9999L33.9999 16.4142L36.9351 13.4794C39.6369 16.2692 41.4432 19.9303 41.8912 24H37.6843V26H42C41.9975 30.3403 40.4579 34.3201 37.894 37.4269L34.4736 34.0067L33.0594 35.4209L36.5366 38.898L36.5239 38.9103L37.9152 40.3471C41.6663 36.7148 44 31.6236 44 25.9892C44 14.949 35.0452 6 24 6C12.9548 6 4 14.949 4 25.9892C4 31.4741 6.21161 36.4446 9.78969 40.0553L11.2103 38.6475C11.204 38.6412 11.1978 38.6349 11.1915 38.6285L14.1967 35.6232L12.7825 34.209L9.86416 37.1274C7.44565 34.0662 6.00246 30.2022 6 26H10.0527V24H6.10881Z" fill="#333333"/>
<path d="M25.6321 36.4988C25.2735 36.6601 24.8684 36.685 24.4927 36.5687L11.5659 31.1361C9.6534 30.5441 10.1289 28.5756 12.1066 28.8865L26.0898 29.6873C26.4782 29.7484 26.831 29.9492 27.0819 30.2519L28.8014 32.6245C29.066 33.6535 28.953 34.1406 28.2208 35.1261L25.6321 36.4988Z" fill="#333333"/>
</svg>
